icons/mobile/24/svg/reading-list-slash-24.svg

<!-- This Source Code Form is subject to the terms of the Mozilla Public
   - License, v. 2.0. If a copy of the MPL was not distributed with this
   - file, You can obtain one at http://mozilla.org/MPL/2.0/. -->
<svg width="24" height="24" viewBox="0 0 24 24" fill="none" xmlns="http://www.w3.org/2000/svg">
    <path d="M11 17H7V15.25H11V17Z" fill="black" />
    <path fill-rule="evenodd" clip-rule="evenodd" d="M23 20.7627L22.3809 21.3809L21.7627 22L20.1367 20.374C19.7007 20.7619 19.1302 21 18.5 21H13.9824L12.4346 21.8848C12.2996 21.9617 12.1489 22 12 22C11.8511 22 11.7004 21.9617 11.5664 21.8848L10.0176 21H5.5C4.121 21 3 19.879 3 18.5V5.5C3.00001 4.87009 3.23651 4.2985 3.62402 3.8623L2 2.23828L3.23828 1L23 20.7627ZM4.86523 5.10352C4.79287 5.2188 4.75001 5.35437 4.75 5.5V18.5C4.75 18.913 5.087 19.25 5.5 19.25H10.25C10.4029 19.25 10.5516 19.2903 10.6846 19.3652L12 20.1172L13.3154 19.3652C13.4484 19.2903 13.5981 19.25 13.75 19.25H18.5C18.6458 19.25 18.7811 19.2063 18.8965 19.1338L12 12.2373V13H7V11.25H11.0117L8.76172 9H7V7.25H7.01172L4.86523 5.10352Z" fill="black" />
    <path d="M10.25 3C10.4019 3 10.5516 3.04032 10.6846 3.11523L12 3.86719L13.3154 3.11523C13.4484 3.04032 13.5981 3 13.75 3H18.5C19.879 3 21 4.121 21 5.5V16.2871L19.25 14.5371V5.5C19.25 5.087 18.913 4.75 18.5 4.75H13.9834L12.4346 5.63477C12.1657 5.7886 11.8363 5.78861 11.5664 5.63477L10.0176 4.75H9.46289L7.71289 3H10.25Z" fill="black" />
</svg>

<!-- This Source Code Form is subject to the terms of the Mozilla Public
   - License, v. 2.0. If a copy of the MPL was not distributed with this
   - file, You can obtain one at http://mozilla.org/MPL/2.0/. -->
<svg xmlns="http://www.w3.org/2000/svg" width="24" height="24" fill="none" viewBox="0 0 24 24">
    <path fill="#000" d="M11 17H7v-1.75h4z" />
    <path fill="#000" fill-rule="evenodd" d="m23 20.763-.62.618-.617.619-1.626-1.626A2.45 2.45 0 0 1 18.5 21h-4.518l-1.547.885a.88.88 0 0 1-.869 0L10.018 21H5.5A2.5 2.5 0 0 1 3 18.5v-13c0-.63.237-1.202.624-1.638L2 2.238 3.238 1zM4.865 5.103a.74.74 0 0 0-.115.397v13c0 .413.337.75.75.75h4.75c.153 0 .302.04.435.115l1.315.752 1.315-.752a.9.9 0 0 1 .435-.115h4.75a.74.74 0 0 0 .396-.116L12 12.237V13H7v-1.75h4.012L8.762 9H7V7.25h.012z" clip-rule="evenodd" />
    <path fill="#000" d="M10.25 3c.152 0 .302.04.435.115L12 3.867l1.315-.752A.9.9 0 0 1 13.75 3h4.75C19.879 3 21 4.121 21 5.5v10.787l-1.75-1.75V5.5a.75.75 0 0 0-.75-.75h-4.517l-1.548.885a.87.87 0 0 1-.869 0l-1.548-.885h-.555L7.713 3z" />
</svg>
